svg/usb.svg

<svg xmlns="http://www.w3.org/2000/svg" viewBox="0 0 24 24"><path d="M15 7v4h1v2h-3V5h2l-3-4-3 4h2v8H8v-2.07c.7-.37 1.2-1.08 1.2-1.93A2.2 2.2 0 0 0 7 6.8c-1.22 0-2.2.98-2.2 2.2 0 .85.5 1.56 1.2 1.93V13a2 2 0 0 0 2 2h3v3.05c-.71.36-1.2 1.1-1.2 1.95a2.2 2.2 0 0 0 2.2 2.2 2.2 2.2 0 0 0 2.2-2.2c0-.85-.49-1.59-1.2-1.95V15h3a2 2 0 0 0 2-2v-2h1V7z"/></svg>

<?xml version="1.0" encoding="UTF-8"?><!DOCTYPE svg PUBLIC "-//W3C//DTD SVG 1.1//EN" "http://www.w3.org/Graphics/SVG/1.1/DTD/svg11.dtd"><svg xmlns="http://www.w3.org/2000/svg" xmlns:xlink="http://www.w3.org/1999/xlink" version="1.1" id="mdi-usb" width="24" height="24" viewBox="0 0 24 24"><path d="M15,7V11H16V13H13V5H15L12,1L9,5H11V13H8V10.93C8.7,10.56 9.2,9.85 9.2,9C9.2,7.78 8.21,6.8 7,6.8C5.78,6.8 4.8,7.78 4.8,9C4.8,9.85 5.3,10.56 6,10.93V13A2,2 0 0,0 8,15H11V18.05C10.29,18.41 9.8,19.15 9.8,20A2.2,2.2 0 0,0 12,22.2A2.2,2.2 0 0,0 14.2,20C14.2,19.15 13.71,18.41 13,18.05V15H16A2,2 0 0,0 18,13V11H19V7H15Z" /></svg>
